!!!OPR: String Quartet in C minor, Op. 51, No. 1 1-40
!!!OPS: Op. 51
!!!ONM: No. 1
!!!OMV: No. 3
!!!OTL: Allegretto molto moderato e commodo -- Un poco pi&ugrave; animato
!!!COM: Brahms, Johannes
**harm	**chord	**kern	**dynam	**dynam	**kern
*	*	*staff4	*staff4	*staff3	*staff2
*>[I,A,A,B,C,C,D]	*>[I,A,A,B,C,C,D]	*>[I,A,A,B,C,C,D]	*>[I,A,A,B,C,C,D]	*>[I,A,A,B,C,C,D]	*>[I,A,A,B,C,C,D]
*>norep[I,A,B,C,D]	*>norep[I,A,B,C,D]	*>norep[I,A,B,C,D]	*>norep[I,A,B,C,D]	*>norep[I,A,B,C,D]	*>norep[I,A,B,C,D]
*>I	*>I	*>I	*>I	*>I	*>I
*	*	*Icello	*Icello	*Iviola	*Ivioln
*	*	*clefF4	*clefF4	*clefC3	*clefG2
*k[b-e-a-d-]	*k[b-e-a-d-]	*k[b-e-a-d-]	*k[b-e-a-d-]	*k[b-e-a-d-]	*k[b-e-a-d-]
*M4/8	*M4/8	*M4/8	*M4/8	*M4/8	*M4/8
*MM112	*MM112	*MM112	*MM112	*MM112	*MM112
*Cm:	*Cm:	*	*	*	*
iv	Fm	8FF^/	p	p	8A-^/ 8a-^/
.	.	.	.	.	.
=1!|:	=1!|:	=1!|:	=1!|:	=1!|:	=1!|:
*>A	*>A	*>A	*>A	*>A	*>A
V7m9	G7b9	8GG'/L	.	>	8G'/L 8dn'/
.	.	.	.	.	.
.	.	8GG'/	.	.	8G'/ 8d'/
.	.	.	.	.	.
iv	Fm	8GG'/J	.	.	8G'/J 8d'/
.	.	.	.	.	.
.	.	8FF^/	.	<	8A-^/ 8a-^/
.	.	.	.	.	.
=2	=2	=2	=2	=2	=2
V7m9	G7b9	8GG'/L	.	>	8G'/L 8dn'/
.	.	.	.	.	.
.	.	8GG'/	.	.	8G'/ 8d'/
.	.	.	.	.	.
Vb/ii	Ab/C	8GG'/J	.	.	8G'/J 8d'/
.	.	.	.	.	.
.	.	8CC'/	.	.	8A-/ 8a-/
.	.	.	.	.	.
=3	=3	=3	=3	=3	=3
IV/VI	Db	8DD-'/L	.	.	8A-'/L 8f'/
.	.	.	.	.	.
.	.	8EE-'/	.	.	8e-'/
.	.	.	.	.	.
VIc	Ab/Eb	8FF'/J	.	.	8dn'/
.	.	.	.	.	.
.	.	8AA-'/	.	.	8B-'/J 8d'/
.	.	.	.	.	.
=4	=4	=4	=4	=4	=4
V7c/III	Bb7/F	8GG'/L	.	.	8B-'/L 8e-'/
.	.	.	.	.	.
.	.	8FF'/	.	.	8B-'/ 8dn'/
.	.	.	.	.	.
III	Eb	8EE-'/J	.	.	8B-'/J 8e-'/
.	.	.	.	.	.
iv	Fm	8FF^/	.	.	8A-^/ 8a-^/
.	.	.	.	.	.
=5	=5	=5	=5	=5	=5
V7m9	G7b9	8GG'/L	.	.	8G'/L 8dn'/
.	.	.	.	.	.
.	.	8GG'/	.	.	8G'/ 8d'/
.	.	.	.	.	.
.	.	8GG'/J	.	.	8G'/J 8d'/
.	.	.	.	.	.
iv	Fm	8FF^/	.	.	8A-^/ 8a-^/
.	.	.	.	.	.
=6	=6	=6	=6	=6	=6
V7m9	G7b9	8GG'/L	.	.	8G'/L 8dn'/
.	.	.	.	.	.
.	.	8GG'/	.	.	8G'/ 8d'/
.	.	.	.	.	.
.	.	8GG'/J	.	.	8G'/J 8d'/
.	.	.	.	.	.
Vb/iv	C7/E	8EEn/	.	.	8g/
.	.	.	.	.	.
=7	=7	=7	=7	=7	=7
iv	Fm	8FF/L	.	.	8f/L
.	.	.	.	.	.
V7b/V	D7/F#	8FF#/	>	>	8c/ 8e-/
.	.	.	.	.	.
Ic	Cm/G	8GG/	.	.	8c/ 8e-/
.	.	.	.	.	.
V7D5m9c/V	D7b5b9/Ab	8AA-/J	.	.	8c/J 8e-/
.	.	.	.	.	.
=8	=8	=8	=8	=8	=8
i64	Cm64	8GG/L	>	.	8c/L 8e-/
.	.	.	.	.	.
V7	G7	8GG/	.	.	8Bn/
.	.	.	.	.	.
.	.	8CC/J	.	.	8G/J
.	.	.	.	.	.
i	Cm	(16C/LL	.	.	(16c/LL
.	.	16D-/JJ)	.	.	16d-/JJ)
=9	=9	=9	=9	=9	=9
viiom7/VI	Gddim7	(16D-/LL	.	.	(16d-/LL
.	.	16BB-/JJ)	.	.	16B-/JJ)
.	.	(16BB-/LL	.	.	(16B-/LL
.	.	16AA-/JJ)	.	.	16A-/JJ)
.	.	(16AA-/LL	.	.	(16A-/LL
.	.	16GG/JJ)	.	.	16G/JJ)
.	.	(16C/LL	.	.	(16c/LL
.	.	16D-/JJ)	.	.	16d-/JJ)
=10	=10	=10	=10	=10	=10
viiom7/VI	Gddim7	(16D-/LL	.	.	(16d-/LL
.	.	16BB-/JJ)	.	.	16B-/JJ)
.	.	(16BB-/LL	.	.	(16B-/LL
.	.	16AA-/JJ)	.	.	16A-/JJ)
.	.	(16AA-/LL	.	.	(16A-/LL
.	.	16GG/JJ)	.	.	16G/JJ)
.	.	(16C/LL	.	.	(16c/LL
.	.	16D-/JJ)	.	.	16d-/JJ)
=11	=11	=11	=11	=11	=11
viiom7/VI	Gddim7	(16D-/LL	.	.	(16d-/LL
.	.	16BB-/)	.	.	16B-/JJ)
.	.	(16BB-/	.	.	(16B-/LL
.	.	16AA-/JJ)	.	.	16A-/JJ)
.	.	(16AA-/LL	.	.	(16A-/LL
.	.	16GG/)	.	.	16G/JJ)
.	.	(16GG/	.	.	(16G/LL
.	.	16E-/JJ)	.	.	16e-/JJ)
=12	=12	=12	=12	=12	=12
V7m9b/VI	Eb7b9	(16E-/LL	<	.	(16e-/LL
.	.	16C/)	.	.	16c/JJ)
.	.	(16C/	.	.	(16c/LL
.	.	16BB-/JJ)	.	<	16B-/JJ)
.	.	(16BB-/LL	.	.	(16B-/LL
.	.	16AAn/)	.	.	16An/JJ)
V7m9b/VII	F7b9/A	(16AA/	.	.	(16A/LL
.	.	16F/JJ)	.	.	16f/JJ)
=13	=13	=13	=13	=13	=13
V7m9b	G7b9/B	(16F\LL	.	.	8.f/L
.	.	16E-\)	.	.	.
.	.	(16E-\	.	.	.
.	.	16D-\JJ)	.	.	16f/Jk
.	.	(16D-/LL	.	.	(16f/LL
.	.	16C/)	.	.	16e-/JJ)
i	Cm	(16C/	.	.	(16e-/LL
.	.	16BBn/JJ)	.	.	16dn/JJ)
=14	=14	=14	=14	=14	=14
i	Cm	(16BBn/LL	>	>	(16dn/LL
.	.	16C/)	.	.	16c/JJ)
iv	Fm7	(16C/	.	.	(16c/LL
.	.	16FF/JJ)	.	.	16A-/JJ)
.	.	(16FF/LL	.	.	(16c/LL
.	.	16GG/)	.	.	16Bn/JJ)
V	G	(16GG/	.	.	(16B/LL
.	.	16CC/JJ)	.	.	16c/JJ)
=15	=15	=15	=15	=15	=15
*	*	*^	*	*	*
i	Cm	2CC/	16CC/LL	p	p	(16c/LL
.	.	.	16CC/	.	.	16g/JJ)
.	.	.	16CC/	.	.	(8g/L
.	.	.	16CC/	.	.	.
V7d/V	D7/C	.	16CC/	.	.	8f#/
.	.	.	16CC/	.	.	.
.	.	.	16CC/	.	.	8fn/J
.	.	.	16CC/JJ	.	.	.
=16	=16	=16	=16	=16	=16	=16
V7	G7/C	2CC/	16CC/LL	.	.	8en/L
.	.	.	16CC/	.	.	.
VI	Ab/C	.	16CC/	.	.	8e-/
.	.	.	16CC/	.	.	.
VII	Bb/C	.	16CC/	.	.	8dn/J)
.	.	.	16CC/	.	.	.
VI	Ab/C	.	16CC/	.	.	[8c/
.	.	.	16CC/JJ	.	.	.
=17	=17	=17	=17	=17	=17	=17
III	Eb	8CC/L	16CC/LL	.	.	8c/]
.	.	.	16CC/	.	.	.
.	.	8EE-/J	16EE-/	.	.	(16B-/LL
.	.	.	16EE-/	.	.	16e-/
.	.	8EE-/L	16EE-/	.	.	16g/
.	.	.	16EE-/	.	.	16e-/JJ)
iiob	Ddim/F	8FF/J	16FF/	.	.	([8dn/
.	.	.	16FF/JJ	.	.	.
*	*	*v	*v	*	*	*
=18	=18	=18	=18	=18	=18
iiob	Ddim/F	16FF/LL	.	.	16d/LL]
.	.	16FF/JJ	.	.	16c/JJ)
V7	G7	(16GG/LL	.	.	(8Bn/L
.	.	16FF/	.	.	.
.	.	16EE-/	.	.	8f/
.	.	16DDn/JJ)	.	.	.
.	.	16CC/LL	.	.	8bn/J
.	.	16CC/JJ	.	.	.
=19	=19	=19	=19	=19	=19
*	*	*^	*	*	*
i	Cm	2CC/	16CC/LL	<	.	8ff\)
.	.	.	16CC/	.	.	.
.	.	.	16CC/	>	.	([8.ee-\L
.	.	.	16CC/	.	.	.
.	.	.	16CC/	.	.	.
V7d/V	D7/C	.	16CC/	.	.	16ddn\L
.	.	.	16CC/	.	.	16an\
V7	G7/C	.	16CC/JJ	.	.	16bn\JJ
=20	=20	=20	=20	=20	=20	=20
I	C	2CC/	16CC/LL	.	.	16g/LL
.	.	.	16CC/	.	.	16cc/JJ)
VI	Ab/C	.	16CC/	.	.	(16g/LL
.	.	.	16CC/	.	.	16a-/
VII	Bb/C	.	16CC/	.	.	16f/
.	.	.	16CC/	.	.	16b-/JJ)
VI	Ab	.	16CC/	.	.	(16e-/LL
.	.	.	16CC/JJ	.	.	16a-/JJ
=21	=21	=21	=21	=21	=21	=21
III	Eb	8CC/L	16CC/LL	.	.	16cc/LL
.	.	.	16CC/	.	.	16a-/J)
.	.	8EE-/J	16EE-/	.	.	[8g/J
.	.	.	16EE-/	.	.	.
.	.	8EE-/L	16EE-/	.	.	8g/L]
.	.	.	16EE-/	.	.	.
VI	Ab	8AA-/J	16AA-/	.	.	(16e-/L
.	.	.	16AA-/JJ	.	.	16a-/JJ
=22	=22	=22	=22	=22	=22	=22
VI	Ab	8AA-/L	16AA-/LL	.	.	16cc/LL)
.	.	.	16AA-/	.	.	16a-/J
III	Eb	8E-/J	16E-\	.	.	[8g/J
.	.	.	16E-\	.	.	.
.	.	8E-/L	16E-\	.	.	8g/L]
.	.	.	16E-\	.	.	.
iiom7b	Dddim7/F	8FF/J	16FF/	.	.	16a-/L
.	.	.	16FF/JJ	.	.	16g/JJ
=23	=23	=23	=23	=23	=23	=23
iiom7b	Dddim7/F	4FF/	16FF/LL	.	.	16f/LL
.	.	.	16FF/	.	.	16e-/
.	.	.	16FF/	.	.	16dn/
.	.	.	16FF/JJ	.	.	16c/JJ
*	*	*v	*v	*	*	*
V7	G7	16GG/LL	.	.	4Bn/
.	.	16GG/	.	.	.
.	.	(16GG/	.	.	.
.	.	16FF/JJ	.	.	.
=24	=24	=24	=24	=24	=24
i	Cm	16EE-/LL	p	p	8G/
.	.	16DDn/J	.	.	.
.	.	8CC/J)	.	.	8r
.	.	16r	.	.	8G/
.	.	(16DD/LK	.	.	.
.	.	8CC/J)	.	.	8r
=25	=25	=25	=25	=25	=25
i	Cm	16r	.	.	8G/
.	.	(16DDn/LK	.	.	.
.	.	8CC/J)	.	.	8r
.	.	.	.	.	.
.	.	4r	.	.	16r
.	.	.	.	.	(16c/LL
.	.	.	.	.	16B-/
.	.	.	.	.	16d-/JJ
=26	=26	=26	=26	=26	=26
i	Cm	4r	.	.	16g/LL
.	.	.	.	.	16b-/JJ)
vib/iv	Db/F	.	.	.	4a-/
.	.	.	.	.	.
.	.	8r	.	.	.
.	.	.	.	.	.
iv	Fm	8FF/	.	.	8A-/ 8a-/
.	.	.	.	.	.
=27:|!	=27:|!	=27:|!	=27:|!	=27:|!	=27:|!
*>B	*>B	*>B	*>B	*>B	*>B
i	Cm	16r	.	.	8G/
.	.	(16DDn/LK	.	.	.
.	.	8CC/J)	.	.	8r
.	.	.	.	.	.
.	.	8r	.	.	16r
.	.	.	.	.	(16G/LL
.	.	8r	.	.	16c/
.	.	.	.	.	16e-/JJ
=28	=28	=28	=28	=28	=28
ioD7	Cddim7	4r	.	.	16g\LL
.	.	.	.	.	16cc\J
.	.	.	.	.	[8ee-\J)
.	.	.	.	.	.
.	.	8r	.	.	8.ee-\L]
.	.	.	.	.	.
.	.	([8e-\	p	.	.
.	.	.	.	p	[16ee-\Jk
=29	=29	=29	=29	=29	=29
ioD7	Cddim7	8e-\L]	.	.	16ee-\LK]
.	.	.	.	.	8ee-\
.	.	16c\L	.	.	.
.	.	16dn\JJ	.	.	[16ee-\Jk
.	.	8e-\)	.	.	16ee-\LK]
.	.	.	.	.	8ee-\
*Bm:	*Bm:	*	*	*	*
V7/VII	F#7	([8e-\	.	.	.
.	.	.	.	.	[16ee-\Jk
=30	=30	=30	=30	=30	=30
V7	F#7	8e-\L]	.	.	16ee-\LK]
.	.	.	.	.	8ee-\
.	.	16c\L	.	.	.
.	.	16d-\JJ	.	.	[16ee-\Jk
.	.	8e-\)	.	.	16ee-\LK]
.	.	.	.	.	8ee-\
ic	Bm/F#	[8f#\	.	.	.
.	.	.	.	.	[16cc#\Jk
=31	=31	=31	=31	=31	=31
iioD7	C#ddim7	8f#\]	.	.	16cc#\LK]
.	.	.	.	.	8cc#\
V7	F#7	4F#\	.	.	.
.	.	.	.	.	[16bn\Jk
.	.	.	.	.	16b\LK]
.	.	.	.	.	8b\
.	.	([8G\	.	.	.
.	.	.	.	.	[16b\Jk
=32	=32	=32	=32	=32	=32
i	Bm	16G\LL]	.	.	16b\LK]
.	.	16F#\	.	.	8bn\
iioD7d/VII	Bddim7/A	16En\	.	.	.
.	.	16G\JJ	.	.	16b\Jk
*Bbm:	*Bbm:	*	*	*	*
V7b	F7/A	16F#\LL	.	.	16a#/LL
.	.	16E\	.	.	16a#/JJ
i	Bbm	16Dn\	.	.	16b\LL
.	.	16C#\JJ	.	.	[16b\JJ
=33	=33	=33	=33	=33	=33
iioD7b	Cddim7/Eb	4BBn/)	.	.	16b/LK]
.	.	.	.	.	8dn/ 8f#/
.	.	.	.	.	.
.	.	.	.	.	[16d/Jk [16f#/
.	.	4r	.	.	16d/LK] 16f#/]
.	.	.	.	.	8d/ 8f#/
.	.	.	.	.	.
.	.	.	.	.	[16d/Jk [16fn/
=34	=34	=34	=34	=34	=34
iioD7b	Cddim7/Eb	2r	.	.	16d/LK] 16f/]
.	.	.	.	.	8dn/ 8f/
.	.	.	.	.	.
.	.	.	.	.	[16d/Jk [16f/
.	.	.	.	.	16d/LK] 16f/]
.	.	.	.	.	8d/ 8f/
.	.	.	.	.	.
.	.	.	.	.	[16cn/Jk [16e-/
=35	=35	=35	=35	=35	=35
iioD7b	Cddim7/Eb	4r	.	.	16c/LK] 16e-/]
.	.	.	.	.	8c/ 8e-/
.	.	.	.	.	.
.	.	.	.	.	[16d-/Jk
.	.	8r	.	.	16d-/LK]
.	.	.	.	.	8d-/
.	.	([8E-\	.	.	.
.	.	.	.	.	[16c/Jk
=36	=36	=36	=36	=36	=36
iioD7b	Cddim7/Eb	16E-\LL]	.	.	16c/LK]
.	.	16F\	.	.	8c/
.	.	16G-\	.	.	.
.	.	16E-\JJ)	.	.	8c/
V7	F7	8F\	.	.	.
.	.	.	.	.	(16c/L
.	.	([8FF/	.	.	16An/)
.	.	.	.	.	(16A/JJ
=37	=37	=37	=37	=37	=37
viio7/iv	Ddim7	8FF/L]	.	.	16A-/LK)
.	.	.	.	.	8A-/
.	.	16DDn/L	.	.	.
.	.	16EE-/JJ	.	.	[16A-/Jk
.	.	8FF/)	.	.	16A-/LK]
.	.	.	.	.	8A-/
.	.	([8FF/	.	.	.
.	.	.	.	.	[16A-/Jk
=38	=38	=38	=38	=38	=38
*Db:	*Db:	*	*	*	*
I	Db7	8FF/L]	.	.	16A-/LK]
.	.	.	.	.	8A-/
.	.	16DDn/L	.	.	.
.	.	16EE-/JJ	.	.	[16A-/Jk
.	.	8FF/)	.	.	16A-/LK]
.	.	.	.	.	8A-/
.	.	16DD/LL	.	.	.
.	.	16EE-/JJ	.	.	[16A-/Jk
=39	=39	=39	=39	=39	=39
I	Db7	24FF/	.	.	24A-/LL]
.	.	(24DDn/LL	<	.	(24dn/
.	.	24EE-/JJ	.	.	24e-/JJ
.	.	24FF/LL)	.	.	24f/LL)
.	.	(24FF/	.	.	(24f/
IV7	Gb7	24GG-/JJ	.	.	24g-/JJ
.	.	24AA-/LL)	.	.	24a-/LL)
.	.	(24AA-/	.	.	(24a-/
.	.	24BB-/JJ	.	.	24b-/JJ
IVM7/IV	Cbmaj7	8C-/)	.	.	8cc-\)
=40	=40	=40	=40	=40	=40
IVM7/IV	Cbmaj7	4r	.	.	2r
.	.	.	.	p	.
.	.	8r	.	.	.
.	.	8AA-/	.	.	.
.	.	.	.	.	.
.	.	.	.	.	.
=41	=41	=41	=41	=41	=41
*	*	*	*	*	*
IVM7/IV	Cbmaj7	8DD-/	.	.	8r
.	.	.	.	.	.
.	.	.	.	.	.
V79b	Ab79/C	8r	.	.	8a-/L
.	.	.	.	.	.
.	.	.	.	.	.
.	.	8r	.	.	8d-/J
.	.	.	.	.	.
.	.	.	.	.	.
.	.	8D-\	.	.	8r
.	.	.	.	.	.
.	.	.	.	.	.
=42	=42	=42	=42	=42	=42
V79b	Ab79/C	8GG-/	.	.	8r
.	.	.	.	.	.
.	.	.	.	.	.
.	.	8r	.	.	8d-/L
.	.	.	.	.	.
.	.	.	.	.	.
.	.	8r	.	.	8g-/J
.	.	.	.	.	.
.	.	.	.	.	.
.	.	8G-\	.	.	8r
.	.	.	.	.	.
.	.	.	.	.	.
=43	=43	=43	=43	=43	=43
V7	Ab7	8BBn/	.	.	8r
.	.	.	.	.	.
.	.	.	.	.	.
.	.	8r	.	.	8g-/L
.	.	.	.	.	.
.	.	.	.	.	.
.	.	8r	.	.	8c-/J
.	.	.	.	.	.
.	.	.	.	.	.
.	.	8G-\	.	.	8r
.	.	.	.	.	.
.	.	.	.	.	.
=44	=44	=44	=44	=44	=44
V7	Ab7	8C/	<	.	8r
.	.	.	.	.	.
.	.	.	.	.	.
.	.	8r	.	.	8e-/
.	.	.	.	.	.
.	.	.	.	.	.
.	.	8E-\	.	.	8r
.	.	.	.	.	.
.	.	.	.	.	.
.	.	8r	.	.	8g-/
.	.	.	.	.	.
.	.	.	.	.	.
=45	=45	=45	=45	=45	=45
.	Ab7	8AA-/	.	.	8r
.	.	.	.	.	.
.	.	.	.	.	.
.	.	8r	.	.	8e-/ 8cc/
.	.	.	.	.	.
.	.	.	.	.	.
.	.	8A-\	.	.	4r
.	.	.	.	.	.
.	.	.	.	.	.
I	Db	8r	.	.	.
.	.	.	.	.	.
.	.	.	.	.	.
=46	=46	=46	=46	=46	=46
I	Db	2r	.	.	2r
.	.	.	.	.	.
.	.	.	.	.	.
.	.	.	.	.	.
.	.	.	.	.	.
.	.	.	.	.	.
.	.	.	.	.	.
.	.	.	.	.	.
.	.	.	.	.	.
.	.	.	.	.	.
.	.	.	.	.	.
.	.	.	.	.	.
=47	=47	=47	=47	=47	=47
I	Db	2r	.	.	4r
.	.	.	.	.	.
.	.	.	.	.	.
.	.	.	.	.	.
.	.	.	.	.	.
.	.	.	.	.	.
.	.	.	.	.	24r
.	.	.	.	.	(24a-\LL
.	.	.	.	.	24cc\JJ
.	.	.	.	.	[8dd-\)
=48	=48	=48	=48	=48	=48
I	Db	4r	.	.	8dd-\]
.	.	.	.	.	4cc\
.	.	8r	.	.	.
*F:	*F:	*	*	*	*
V7/V	G7	8G\	p	.	([8bn\
.	.	.	.	.	.
.	.	.	.	.	.
=49	=49	=49	=49	=49	=49
V7/V	G7	8GG/	.	.	24b\LL]
.	.	.	.	.	24cc\
.	.	.	.	.	24ddn\J)
.	.	8r	.	.	([8bn\J
.	.	.	.	.	.
.	.	.	.	.	.
.	.	8r	.	.	24b/LL]
.	.	.	.	.	24an/
.	.	.	.	.	24g/J)
.	.	8G\	.	.	([8b/J
.	.	.	.	.	.
.	.	.	.	.	.
=50	=50	=50	=50	=50	=50
V7	C7	8C/	.	.	24b\LL]
.	.	.	.	.	24cc\
.	.	.	.	.	24ddn\J)
.	.	8r	.	.	([8b-\J
.	.	.	.	.	.
.	.	.	.	.	.
.	.	8r	.	.	24b-/LL]
.	.	.	.	.	24an/
.	.	.	.	.	24g/J)
.	.	8C/	.	.	([8b-/J
.	.	.	.	.	.
.	.	.	.	.	.
=51	=51	=51	=51	=51	=51
I	F	8FF/	.	.	24b-\LL]
.	.	.	.	.	24cc\
.	.	.	.	.	24ddn\J)
.	.	8r	.	.	([8an\J
.	.	.	.	.	.
.	.	.	.	.	.
.	.	8r	.	.	24a/LL]
.	.	.	.	.	24g/
.	.	.	.	.	24f/J)
.	.	8F\	<	.	([8a/J
.	.	.	.	.	.
.	.	.	.	.	.
=52	=52	=52	=52	=52	=52
I	F	8BB-/	.	.	24a/LL]
.	.	.	.	.	24g/
.	.	.	.	.	24f/J)
.	.	8Bn\	.	.	([8an/J
.	.	.	.	.	.
.	.	.	.	.	.
.	.	8BBn/	.	.	24a/LL]
.	.	.	.	.	24g/
.	.	.	.	.	24f/J)
.	.	8GG/	.	.	8a/J
.	.	.	.	.	.
.	.	.	.	.	.
=53	=53	=53	=53	=53	=53
V	C7	8C/	.	.	(24g/LL
.	.	.	.	.	24f/
.	.	.	.	.	24en/
.	.	8r	.	.	24b-/
.	.	.	.	.	24an/
.	.	.	.	.	24g/JJ)
.	.	4r	.	.	(24ddn/LL
.	.	.	.	.	24cc/
.	.	.	.	.	24b-/
.	.	.	.	.	24a/
.	.	.	.	.	24g/
.	.	.	.	.	24f/JJ)
=54	=54	=54	=54	=54	=54
I	F	2r	.	.	(24en/LL
.	.	.	.	.	24g/
.	.	.	.	.	24f/
.	.	.	.	.	24e/
.	.	.	.	.	24dn/
.	.	.	.	.	24c/JJ)
.	.	.	.	.	(24B-/LL
.	.	.	.	.	24An/
.	.	.	.	.	24G/
.	.	.	.	.	24A/
.	.	.	.	.	24B-/
.	.	.	.	.	24c/JJ
=55	=55	=55	=55	=55	=55
I	F	4r	.	.	24dn/LL
.	.	.	.	.	24en/
.	.	.	.	.	24f/
.	.	.	.	.	24g/)
.	.	.	.	.	(24an/
.	.	.	.	.	24cc/JJ
*	*	*clefC4	*clefC4	*	*
.	.	24r	.	.	8ff\)
*	*	*	*	*clefG2	*
*Cm:	*Cm:	*	*	*	*
Vc/V	Db/Ab	(24f\LL	.	.	.
.	.	24g\JJ	.	.	.
.	.	8an\)	.	.	24r
iv	Fm	.	.	.	(24An/LL
.	.	.	.	.	24c/JJ
=56	=56	=56	=56	=56	=56
*	*	*clefF4	*clefF4	*clefC3	*
V79	Gb79	24r	.	.	8f/)
.	.	(24F\LL	.	.	.
.	.	24G\JJ	.	.	.
.	.	4An\)	.	.	8r
.	.	.	.	.	4r
.	.	[8A\	.	<	.
=57	=57	=57	=57	=57	=57
V79	Gb79	8A\]	<	.	8r
.	.	4A-\	>	>	4d-/
.	.	.	.	.	.
iv	Fm	8FF^/	p	.	8A-^/ 8a-^/
.	.	.	.	.	.
VIb	Ab/C	.	.	.	.
.	.	.	.	.	.
=58	=58	=58	=58	=58	=58
V/VI	Db	8GG/L	.	.	8G'/L 8dn'/
.	.	.	.	.	.
VIc	Ab/Eb	8GG/	.	.	8G'/ 8d'/
.	.	.	.	.	.
.	.	.	.	.	.
.	.	.	.	.	.
.	.	8GG/J	.	.	8G'/J 8d'/
.	.	.	.	.	.
VIIc	Bb7/F	8FF/	.	.	8A-^/ 8a-^/
.	.	.	.	.	.
.	.	.	.	.	.
.	.	.	.	.	.
=59	=59	=59	=59	=59	=59
III	Eb	8GG/L	.	.	8G'/L 8dn'/
.	.	.	.	.	.
.	.	8GG/	.	.	8G'/ 8d'/
.	.	.	.	.	.
.	.	.	.	.	.
.	.	.	.	.	.
iv	Fm	8GG/J	.	.	8G'/J 8d'/
.	.	.	.	.	.
.	.	8CC/	.	.	8A-'/ 8a-'/
.	.	.	.	.	.
=60	=60	=60	=60	=60	=60
*Fm:	*Fm:	*	*	*	*
V79/V	Gb79/V	8DDn/L	.	.	8A-'/L 8f'/
.	.	.	.	.	.
.	.	8EE-/	.	.	8e-'/
.	.	.	.	.	.
i	Fm	8FF/J	.	.	8dn'/J
.	.	.	.	.	.
.	.	8AA-/	.	.	8B-'/ 8d'/
.	.	.	.	.	.
=61	=61	=61	=61	=61	=61
V79	Gb79	8GG/L	.	.	8B-'/L 8e-'/
.	.	.	.	.	.
.	.	8FF/	.	.	8B-'/ 8dn'/
.	.	.	.	.	.
V7b	C7/E	8EE-/J	.	.	8B-'/J 8e-'/
.	.	.	.	.	.
.	.	8FF/	.	.	8A-^/ 8a-^/
.	.	.	.	.	.
.	.	.	.	.	.
.	.	.	.	.	.
=62	=62	=62	=62	=62	=62
i	Fm	8GG/L	.	.	8G'/L 8dn'/
.	.	.	.	.	.
V7c	C7/G	8GG/	.	.	8G'/ 8d'/
.	.	.	.	.	.
.	.	.	.	.	.
.	.	.	.	.	.
.	.	8GG/J	.	.	8G'/J 8d'/
.	.	.	.	.	.
iiom7d	Gddim7/F	8FF/	.	.	8A-^/ 8a-^/
.	.	.	.	.	.
.	.	.	.	.	.
.	.	.	.	.	.
=63	=63	=63	=63	=63	=63
i64	Fm64	8GG/L	.	.	8G'/L 8dn'/
.	.	.	.	.	.
V	C7	8GG/	.	.	8G'/ 8d'/
.	.	.	.	.	.
.	.	.	.	.	.
.	.	.	.	.	.
i	Fm	8GG/J	.	.	8G'/J 8d'/
.	.	.	.	.	.
iiom7d	Gddim7/F	8EEn/	.	.	8g/
.	.	.	.	.	.
=64	=64	=64	=64	=64	=64
i64	Fm64	8FF/L	.	.	8f/L
.	.	.	.	.	.
V	C7	8GG/	.	.	8B-/ 8en/
.	.	.	.	.	.
i	Fm	8AA-/	.	.	8A-/ 8f/
.	.	.	.	.	.
I64	F64	8BB-/J	.	.	8G/J
.	.	.	.	.	.
=65	=65	=65	=65	=65	=65
V	C7	8C/L	.	.	8A-/L
.	.	.	.	.	.
.	.	8C/	.	.	8B-/
.	.	.	.	.	.
.	.	8FF/J	.	.	8A-/J
.	.	.	.	.	.
.	.	8B-\	.	.	8g/
.	.	.	.	.	.
=66	=66	=66	=66	=66	=66
I	C7	8c\L	.	.	8a-/L
.	.	.	.	.	.
.	.	8C\	.	.	8b-/
.	.	.	.	.	.
.	.	8FF\J	.	.	8a-/J
.	.	.	.	.	.
.	.	8B-\	p	p	8g/
.	.	.	.	.	.
=67	=67	=67	=67	=67	=67
I	C7	8r	.	.	8r
.	.	8c\	.	.	(16a-/LL
.	.	.	.	.	16f/JJ)
.	.	8r	>	>	(8f/L
.	.	8C/	.	.	8g/J)
.	.	.	.	.	.
=68	=68	=68	=68	=68	=68
.	.	8r	.	p	8r
*	*	*^	*	*	*
i	Fm	4.FF/	16FF/LL	.	.	(8cc\L
.	.	.	16FF/	p	.	.
V7d/V	G7/F	.	16FF/	.	.	8bn\
.	.	.	16FF/	.	.	.
V7	C7/F	.	16FF/	.	.	8b-\J
.	.	.	16FF/JJ	.	.	.
=69	=69	=69	=69	=69	=69	=69
I	F	2FF/	16FF/LL	.	.	8an/L
.	.	.	16FF/	.	.	.
VIb	Db/F	.	16FF/	.	.	8a-/
.	.	.	16FF/	.	.	.
VII	Eb/F	.	16FF/	.	.	8g/J)
.	.	.	16FF/	.	.	.
VIb	Db/F	.	16FF/	.	.	[8f/
.	.	.	16FF/JJ	.	.	.
=70	=70	=70	=70	=70	=70	=70
III	Ab	8FF/L	16FF/LL	.	.	8f/]
.	.	.	16FF/	.	.	.
.	.	8AA-/J	16AA-/	.	.	(16e-/LL
.	.	.	16AA-/	.	.	16a-/JJ
.	.	8AA-/L	16AA-/	.	.	16cc/LL
.	.	.	16AA-/	.	.	16a-/J)
iiom7b	Gddim7/Bb	8BB-/J	16BB-/	.	.	[8g/J
.	.	.	16BB-/JJ	.	.	.
*	*	*v	*v	*	*	*
=71	=71	=71	=71	=71	=71
iiom7b	Gddim7/Bb	16BB-/LL	.	.	(16g/LL]
.	.	16BB-/JJ	.	.	16f/J
V7	C7	(16C/LL	.	.	8en/J)
.	.	16BB-/	.	.	.
.	.	16AA-/	.	.	([4b-\
.	.	16GG/JJ)	.	.	.
.	.	16FF/LL	.	.	.
.	.	16FF/JJ	.	.	.
=72	=72	=72	=72	=72	=72
*	*	*^	*	*	*
i	Fm	2FF/	16FF/LL	.	.	16b-\LL]
.	.	.	16FF/	.	.	16een\JJ)
.	.	.	16FF/	.	.	(8.aa-\L
.	.	.	16FF/	.	.	.
.	.	.	16FF/	.	.	.
V7d/V	G7/F	.	16FF/	.	.	16gg\L
V	C7/F	.	16FF/	.	.	16ddn\
.	.	.	16FF/JJ	.	.	16ee\JJ
=	=73	=73	=73	=73	=73	=73
I	F	2FF/	16FF/LL	.	.	16cc\LL
.	.	.	16FF/	.	.	16ff\JJ)
.	.	.	16FF/	.	.	(16cc\LL
VIb	Db/F	.	16FF/	.	.	16dd-\
.	.	.	16FF/	.	.	16b-\
VII	Eb/F	.	16FF/	.	.	16ee-\JJ)
.	.	.	16FF/	.	.	(16a-\LL
VIb	Db/F	.	16FF/JJ	.	.	16dd-\JJ
=74	=74	=74	=74	=74	=74	=74
i	Fm	8FF/L	16FF/LL	.	.	16ff\LL
.	.	.	16FF/	.	.	16dd-\JJ)
III	Ab	8AA-/J	16AA-/	.	.	4cc\
.	.	.	16AA-/	.	.	.
.	.	8AA-/L	16AA-/	.	.	.
.	.	.	16AA-/	.	.	.
.	.	8D-/J	16D-\	.	.	(16a-\LL
.	.	.	16D-\JJ	.	.	16dd-\JJ
=75	=75	=75	=75	=75	=75	=75
III	Ab	8D-\L	16D-\LL	.	.	16ff\LL
.	.	.	16D-\	.	.	16dd-\JJ)
.	.	8A-\J	16A-\	.	.	4cc\
.	.	.	16A-\	.	.	.
.	.	8A-\L	16A-\	.	.	.
.	.	.	16A-\	.	.	.
.	.	8AA-\J	16AA-/	.	.	(16dd-\LL
.	.	.	16AA-/JJ	.	.	16cc\JJ
=76	=76	=76	=76	=76	=76	=76
iiom7b	Gddim/Bb	4C/	16C/LL	.	.	16b-/LL
V7	C7	.	16C/	.	.	16a-/J
i	Fm	.	16C/	.	.	8g/J)
.	.	.	16C/JJ	.	.	.
*	*	*v	*v	*	*	*
V7	C7	16C/LL	.	.	(16G/LL
.	.	16C/	.	.	16dn/J
.	.	(16C/	.	.	8c/J)
.	.	16BB-/JJ	.	.	.
=77	=77	=77	=77	=77	=77
i	Fm	16AA-/LL	p	p	8c/
.	.	16GG/J	.	.	.
.	.	8FF/J)	.	.	8r
.	.	16r	.	.	8c/
.	.	(16GG/LK	.	.	.
.	.	8FF/J)	.	.	8r
=78	=78	=78	=78	=78	=78
i	Fm	8r	.	.	8c/
.	.	4FF/	.	.	8r
.	.	.	.	.	.
.	.	.	.	.	16r
.	.	.	.	.	(16f/LL
.	.	8r	.	.	16e-/
.	.	.	.	.	16g/JJ
=	=	=79	=79	=79	=79
V7	C7	4r	.	.	16cc\LL
.	.	.	.	.	16ee-\JJ)
ivb	Bbm/Db	.	.	.	4dd-\
.	.	.	.	.	.
.	.	8r	.	<	.
.	.	.	.	.	.
.	.	8BB-'/	.	>	8dd-'\
i	Fm	.	.	.	.
=80	=80	=80	=80	=80	=80
V7	C7	8C'/	.	.	8g'/
.	.	.	.	.	.
ivb	Bbm/Db	8r	.	.	8r
.	.	.	.	.	.
.	.	8r	.	.	8r
.	.	.	.	.	.
.	.	8D-'\	.	.	8f'/
.	.	.	.	.	.
=81	=81	=81	=81	=81	=81
i	Fm	8F'\	.	.	8f'/
.	.	.	.	.	.
.	.	8r	.	.	8r
.	.	.	.	.	.
.	.	8r	.	.	8r
.	.	.	.	.	.
ivb	Bbm/Db	(16G-\LL	.	.	8d-'/
.	.	16F\JJ)	.	.	.
=82	=82	=82	=82	=82	=82
ivb	Bbm/Db	(16F\LL	.	.	8g'/
.	.	16En\JJ)	.	.	.
.	.	(16E\LL	.	.	8r
.	.	16D-\JJ)	.	.	.
.	.	(16D-/LL	.	.	8r
.	.	16C/JJ)	.	.	.
.	.	(16C/LL	.	.	8f'/
.	.	16BB-/JJ)	.	.	.
=83	=83	=83	=83	=83	=83
*F	*F:	*	*	*	*
*	*	*MM126	*MM126	*	*
iv	Bbm	(16BB-/LL	.	.	8f'/
.	.	16AA-/JJ)	.	.	.
.	.	(16AA-/LL	.	.	8r
.	.	16GG/JJ)	.	.	.
.	.	(16GG/LL	.	.	8r
.	.	16FF/JJ)	.	.	.
.	.	(16c\LL	.	.	8f'/
.	.	16B-\JJ)	.	.	.
=84	=84	=84	=84	=84	=84
iv	Bbm	(16B-\LL	.	.	8f'/
.	.	16A-\JJ)	.	.	.
.	.	(16A-\LL	.	.	8r
.	.	16G\JJ)	.	.	.
.	.	(16G\LL	.	.	8r
.	.	16F\JJ)	.	.	.
.	.	8r	.	.	(16cc\LL
.	.	.	.	.	16b-\JJ)
=85	=85	=85	=85	=85	=85
iv	Bbm	4r	.	.	(16b-/LL
.	.	.	.	.	16f/JJ)
.	.	.	.	.	(16f/LL
.	.	.	.	.	16d-/JJ)
.	.	8r	.	.	(16d-/LL
.	.	.	.	.	16B-/JJ)
.	.	(16c\LL	.	.	8r
.	.	16B-\JJ)	.	.	.
=86	=86	=86	=86	=86	=86
iv	Bbm	(16B-\LL	.	.	8f'/
.	.	16F\JJ)	.	.	.
.	.	(16F\LL	.	.	8r
.	.	16D-\JJ)	.	.	.
.	.	(16D-/LL	.	.	8b-'\
.	.	16BB-/JJ)	.	.	.
.	.	(16BB-/LL	.	.	8r
.	.	16FF/JJ)	.	.	.
=87	=87	=87	=87	=87	=87
I	F	[2FF/	.	.	8f'\ 8ff'\
.	.	.	.	.	8r
.	.	.	.	.	4r
=88	=88	=88	=88	=88	=88
I	F	8FF/]	.	.	8c/ 8f/ 8an/
.	.	8r	.	.	8r
.	.	8r	.	.	8r
=89	=89	=89	=89	=89	=89
*k[b-]	*k[b-]	*k[b-]	*k[b-]	*k[b-]	*k[b-]
*F:	*F:	*	*	*	*
*M3/4	*M3/4	*M3/4	*M3/4	*M3/4	*M3/4
I	F	4AA/	p	.	8a/
.	.	.	.	.	8a\
=90!|:	=90!|:	=90!|:	=90!|:	=90!|:	=90!|:
*>C	*>C	*>C	*>C	*>C	*>C
*	*	*	*	*	*^
I	F	4FF/	.	p	(8a/L	8a\L
.	.	.	.	.	8a/	8a\
.	.	4r	.	.	8a/	8a\
.	.	.	.	.	8a/	8a\
.	.	4DD/	.	.	8a/)	8a\
.	.	.	.	.	8a/J	8a\J
=91	=91	=91	=91	=91	=91	=91
I	F	4FF/	.	.	(8a/L	8a\L
.	.	.	.	.	8a/	8a\
.	.	4r	.	.	8a/	8a\
.	.	.	.	.	8a/	8a\
.	.	4AA/	.	.	8a/)	8a\
.	.	.	.	.	8a/J	8a\J
=92	=92	=92	=92	=92	=92	=92
I	F	4FF/	.	.	(8a/L	8a\L
.	.	.	.	.	8a/	8a\
.	.	4r	.	.	8a/	8a\
.	.	.	.	.	8a/	8a\
.	.	4DD/	.	.	8a/)	8a\
.	.	.	.	.	8a/J	8a\J
=93	=93	=93	=93	=93	=93	=93
I	F	4FF/	.	.	(8a/L	8a\L
.	.	.	.	.	8a/	8a\
.	.	4r	.	.	8a/	8a\
.	.	.	.	.	8a/	8a\
.	.	4AA/	<	.	8a/)	8a\
.	.	.	.	.	8a/J	8a\J
=94	=94	=94	=94	=94	=94	=94
iiib	Am/C	4CC/	.	.	(8a/L	8a\L
.	.	.	.	.	8a/	8a\
.	.	4r	.	.	8a/	8a\
.	.	.	.	.	8a/	8a\
.	.	4AA/	.	.	8a/)	8a\
.	.	.	.	.	8a/J	8a\J
=95	=95	=95	=95	=95	=95	=95
iiib	Am/C	4CC/	<	.	(8a/L	8a\L
.	.	.	.	.	8a/	8a\
.	.	4r	.	.	8a/	8a\
.	.	.	.	.	8a/	8a\
.	.	4AA/	<	.	8a/)	8a\
.	.	.	.	.	8a/J	8a\J
=96	=96	=96	=96	=96	=96	=96
iiib	Am/C	4CC/	.	.	(8a/L	8a\L
.	.	.	.	.	8a/	8a\
.	.	4r	<	.	8a/	8a\
.	.	.	.	.	8a/	8a\
vi	Dm	4DD/	.	.	8a/)	8a\
.	.	.	.	.	8a/J	8a\J
=97	=97	=97	=97	=97	=97	=97
iiic	Am/E	4EE/	.	.	(8a/L	8a\L
.	.	.	.	.	8a/	8a\
.	.	4r	.	.	8a/	8a\
.	.	.	.	.	8a/	8a\
vib	Dm/F	4FF/	.	.	8a/)	8a\
.	.	.	.	.	8a/J	8a\J
=98	=98	=98	=98	=98	=98	=98
V/vi	A	4AA/	.	.	(8a/L	8a\L
.	.	.	.	.	8a/	8a\
.	.	4r	.	.	8a/	8a\
.	.	.	.	.	8a/	8a\
.	.	4r	.	.	8a/)	8a\
.	.	.	.	.	8a/J	8a\J
=99	=99	=99	=99	=99	=99	=99
V/vi	A	4r	.	.	(8a/L	8a\L
.	.	.	.	.	8a/	8a\
.	.	4r	.	.	8a/	8a\
.	.	.	.	.	8a/	8a\
vib	Dm/F	4FF/	.	.	8a/)	8a\
.	.	.	.	.	8a/J	8a\J
=100	=100	=100	=100	=100	=100	=100
V/vi	A	4AA/	.	.	(8a/L	8a\L
.	.	.	.	.	8a/	8a\
.	.	4r	.	.	8a/	8a\
.	.	.	.	.	8a/	8a\
.	.	4r	.	.	8a/)	8a\
.	.	.	.	.	8a/J	8a\J
=101	=101	=101	=101	=101	=101	=101
V/vi	A	4r	.	.	(8a/L	8a\L
.	.	.	.	.	8a/	8a\
.	.	4r	.	.	8a/)	8a\
.	.	.	.	.	8a/J	8a\J
*	*	*	*	*	*v	*v
vb	Cm/Eb	(4EE-/	.	.	(8g/L
.	.	.	.	.	8G/J
=102	=102	=102	=102	=102	=102
V/V	G	[2.GG/)	>	.	4.g/L
.	.	.	.	.	4.G/J)
=103	=103	=103	=103	=103	=103
V/V	G	2GG/]	.	.	(4.g/L
.	.	.	.	.	4.G/J)
vb	Cm/Eb	(4EE-/	.	>	.
=104	=104	=104	=104	=104	=104
V/V	G	[2.GG/)	>	.	(4.g/L
.	.	.	.	.	4.G/J)
=105	=105	=105	=105	=105	=105
V/V	G	2GG/]	.	.	(8g/L
.	.	.	.	.	8G/J
.	.	.	.	.	8g/L
.	.	.	.	.	8G/J)
ivb	Bbm/Db	(4DD-/	.	.	(8f/L
.	.	.	.	.	8B-/J
=106	=106	=106	=106	=106	=106
I	F	2.FF/)	f	f	8f/L
.	.	.	.	.	8c/J
I+	F+	.	.	.	8e/L
.	.	.	.	.	8B-/J
vib	Dm/F	.	.	.	8A/L
.	.	.	.	.	8d/J)
=107	=107	=107	=107	=107	=107
V	C	2.GG/	.	.	(8c/L
.	.	.	.	.	8G/J
.	.	.	.	.	8c/L
.	.	.	.	.	8G/J
V7/V	G7	.	.	.	8Bn/L
.	.	.	.	.	8G/J)
=108	=108	=108	=108	=108	=108
V	C	2CC/	.	.	(8c/L
.	.	.	.	.	8G/J
.	.	.	.	.	8c/L
.	.	.	.	.	8G/J
.	.	4r	.	.	8e/L
.	.	.	.	.	8c/J
=109	=109	=109	=109	=109	=109
V	C	4r	.	.	8g/L
.	.	.	.	.	8e/J
.	.	4r	.	.	8g/L
.	.	.	.	.	8e/J)
I	F	4AA/	p	.	8a/
.	.	.	.	.	8a\
=110:|!	=110:|!	=110:|!	=110:|!	=110:|!	=110:|!
*>D	*>D	*>D	*>D	*>D	*>D
V	C	2.r	.	.	(8e/L
.	.	.	.	.	8c/J
.	.	.	.	.	8e/L
.	.	.	.	.	8c/J
.	.	.	.	.	8g/L
.	.	.	.	.	8e/J)
=111	=111	=111	=111	=111	=111
V	C	4r	.	p	4r
.	.	(4G\	p	.	(4e/
.	.	.	.	.	.
I	F	4F\	.	.	4a/
=112	=112	=112	=112	=112	=112
V	C	4E\	.	.	4g/
.	.	4G\)	.	.	4e/)
.	.	.	.	.	.
.	.	4r	.	.	4r
=113	=113	=113	=113	=113	=113
V	C	4r	.	.	4r
.	.	(4G\	.	.	(4e/
.	.	.	.	.	.
I	F	4F\	.	.	4a/
=114	=114	=114	=114	=114	=114
V	C	4E\	.	.	4g/
.	.	.	.	.	.
.	.	4G\)	.	.	4e/)
.	.	.	.	.	.
.	.	4r	.	.	4r
.	.	.	.	.	.
=115	=115	=115	=115	=115	=115
V/iii	Em	4r	.	.	4r
.	.	(4Bn\	.	.	(4g/
.	.	.	.	.	.
iii	Am	4A\	.	.	4cc\
=116	=116	=116	=116	=116	=116
V/iii	Em	4G\	.	.	4bn\
.	.	4Bn\)	.	.	4g/)
.	.	.	.	.	.
.	.	4r	.	.	4r
=117	=117	=117	=117	=117	=117
V/iii	Em	4r	.	.	4r
.	.	(4Bn\	.	.	(4g/
.	.	.	.	.	.
iii	Am	4A\	.	.	4cc\
=118	=118	=118	=118	=118	=118
V/iii	Em	4G\	.	.	4bn\
.	.	4Bn\)	.	.	4g/)
.	.	.	.	.	.
iii	Am	(4A\	.	.	(4cc\
=119	=119	=119	=119	=119	=119
V/iii	Em	4G\	.	.	4bn\
.	.	4Bn\)	.	.	4g/)
.	.	.	.	.	.
iii	Am	(4A\	.	.	(4cc\
=120	=120	=120	=120	=120	=120
V/iii	Em	4G\	.	.	4bn\
.	.	4Bn\)	.	.	4g/)
.	.	.	.	.	.
iii	Am	(4A\	.	.	(4cc\
=121	=121	=121	=121	=121	=121
V/iii	Em	2G\	>	.	(2bn\)
.	.	.	.	.	.
.	.	.	.	.	.
.	.	.	.	.	.
.	.	[4Bn\	>	.	[4g/
Vc/iii	Em/B	.	.	.	.
=112	=112	=122	=122	=122	=122
Vc/iii	Em/B	4B\]	.	.	4g/]
.	.	.	.	.	.
V7	C7	4c\)	.	.	2b-\)
.	.	.	.	.	.
.	.	4r	.	.	.
.	.	.	.	.	.
123	=123	=123	=123	=123	=123
*	*	*	*	*	*^
F	F	4FF/ 4AA/ 4F/ 4A/	p	.	8a/L	8a\L
.	.	.	.	.	8a/	8a\
*	*	*	*	*	*	*
.	.	4r	.	p	8a/	8a\
.	.	.	.	.	8a/	8a\
*	*	*	*	*	*	*
iii	Dm	4DD/	.	.	8a/	8a\
.	.	.	.	.	8a/J	8a\J
=124	=124	=124	=124	=124	=124	=124
I	F	4FF/ 4AA/ 4F/ 4A/	.	.	8a/L	8a\L
.	.	.	.	.	8a/	8a\
*	*	*	*	*	*	*
.	.	4r	.	.	8a/	8a\
.	.	.	.	.	8a/	8a\
*	*	*	*	*	*	*
.	.	4AA/	.	.	8a/	8a\
.	.	.	.	.	8a/J	8a\J
=125	=125	=125	=125	=125	=125	=125
I	F	4FF/ 4AA/ 4F/ 4A/	.	.	8a/L	8a\L
.	.	.	.	.	8a/	8a\
*	*	*	*	*	*	*
.	.	4r	.	.	8a/	8a\
.	.	.	.	.	8a/	8a\
*	*	*	*	*	*	*
iii	Dm	4DD/	.	.	8a/	8a\
.	.	.	.	.	8a/J	8a\J
=126	=126	=126	=126	=126	=126	=126
I	F	4FF/ 4AA/ 4F/ 4A/	.	.	8a/L	8a\L
.	.	.	.	.	8a/	8a\
*	*	*	*	*	*	*
.	.	4r	.	.	8a/	8a\
.	.	.	.	.	8a/	8a\
*	*	*	*	*	*	*
.	.	4AA/	.	.	8a/	8a\
.	.	.	.	.	8a/J	8a\J
=127	=127	=127	=127	=127	=127	=127
viio7b/IV	Adim7/C	4CC/ 4AA/ 4E-/	<	.	8a/L	8a\L
.	.	.	.	.	8a/	8a\
.	.	4r	.	.	8a/	8a\
.	.	.	.	.	8a/	8a\
.	.	4AA/	.	.	8a/	8a\
.	.	.	.	.	8a/J	8a\J
=128	=128	=128	=128	=128	=128	=128
viio7b/IV	Adim7/C	4CC/ 4AA/ 4E-/	.	.	8a/L	8a\L
.	.	.	.	.	8a/	8a\
.	.	4r	.	.	8a/	8a\
.	.	.	.	.	8a/	8a\
.	.	4AA/	.	.	8a/	8a\
.	.	.	.	.	8a/J	8a\J
129	=129	=129	=129	=129	=129	=129
viio7b/IV	Adim7/C	4CC/ 4AA/ 4E-/	.	.	8a/L	8a\L
.	.	.	.	.	8a/	8a\
.	.	4r	.	.	8a/	8a\
.	.	.	.	.	8a/	8a\
.	.	4r	.	<	8a/	8a\
.	.	.	.	.	8a/J	8a\J
=130	=130	=130	=130	=130	=130	=130
*	*	*	*	*	*	*
viio7b/IV	Adim7/C	2.r	.	.	8a/L	8a\L
.	.	.	.	.	8a/	8a\
.	.	.	.	.	8a/	8a\
.	.	.	.	.	8a/	8a\
.	.	.	.	.	8a/	8a\
.	.	.	.	.	8a/J	8a\J
*	*	*	*	*	*	*
*	*	*	*	*	*v	*v
=131	=131	=131	=131	=131	=131
I7	F7	2FF/	.	f	(4ee-\
.	.	.	.	.	.
.	.	.	.	.	4dd\
.	.	.	.	.	.
.	.	4r	f	.	4a/)
.	.	.	.	.	.
=132	=132	=132	=132	=132	=132
IV	Bb	2BB-/	.	.	(4b-\
.	.	.	.	.	.
.	.	.	.	.	4f#/
.	.	.	.	.	.
.	.	4r	.	.	4g/)
.	.	.	.	.	.
=133	=133	=133	=133	=133	=133
Ic	F/C	2C/	.	.	4f/
.	.	.	.	.	4g/
.	.	.	.	.	.
viio7c/V	Bdim7/F	4FF/	.	.	4a-/
=134	=134	=134	=134	=134	=134
Ic	F/C	2CC/	.	.	4a/
.	.	.	.	.	2e/
.	.	.	.	.	.
V7	C7	4C/	.	.	.
=135	=135	=135	=135	=135	=135
I7	F7	(4FF/	.	.	(8f\L
.	.	.	.	.	8ee-\J)
ii	Gm	4GG/	.	.	(8ee-\L
.	.	.	.	.	8dd\J)
I7b	F7/A	4AA/)	.	.	(8dd\L
.	.	.	.	.	8cc\J)
=136	=136	=136	=136	=136	=136
IV	Bb	(4BB-/	.	.	(8cc\L
.	.	.	.	.	8b-\J)
V7/ii	D7	4D\	.	.	(8b-/L
.	.	.	.	.	8a/J)
ii	Gm	4G\)	.	.	(8a/L
.	.	.	.	.	8g/J)
=137	=137	=137	=137	=137	=137
Ic	F/C	(2C/	.	.	(4f/
.	.	.	.	.	4g/
.	.	.	.	.	.
viio7c/V	Bdim7/F	4FF/)	.	.	4g#/)
=138	=138	=138	=138	=138	=138
iii7	Am7	(2CC/	.	.	(4a/
.	.	.	.	.	4e/
.	.	.	.	.	.
V7	C7	4C/)	.	.	4b-'\)
=139	=139	=139	=139	=139	=139
*	*	*	*	*	*^
I	F	4FF/	p	p	(8a/L	8a\L
.	.	.	.	.	8a/	8a\
.	.	4r	.	.	8a/	8a\
.	.	.	.	.	8a/	8a\
.	.	4r	.	.	8a/)	8a\
.	.	.	.	.	8a/J	8a\J
=140	=140	=140	=140	=140	=140	=140
vi	Dm	4DD/	.	.	(8a/L	8a\L
.	.	.	.	.	8a/	8a\
.	.	4r	.	.	8a/	8a\
.	.	.	.	.	8a/	8a\
.	.	4r	.	.	8a/)	8a\
.	.	.	.	.	8a/J	8a\J
=141	=141	=141	=141	=141	=141	=141
I	F	4FF/	.	.	(8a/L	8a\L
.	.	.	.	.	8a/	8a\
.	.	4r	.	.	8a/	8a\
.	.	.	.	.	8a/	8a\
.	.	4r	.	.	8a/)	8a\
.	.	.	.	.	8a/J	8a\J
=142	=142	=142	=142	=142	=142	=142
iiib	Am/C	4CC/	.	.	(8a/L	8a\L
.	.	.	.	.	8a/	8a\
.	.	4r	.	.	8a/	8a\
.	.	.	.	.	8a/	8a\
.	.	4r	.	.	8a/)	8a\
.	.	.	.	.	8a/J	8a\J
=143	=143	=143	=143	=143	=143	=143
I	F	4FF/	.	.	(8a/L	8a\L
.	.	.	.	.	8a/	8a\
.	.	4r	.	.	8a/	8a\
.	.	.	.	.	8a/	8a\
.	.	4r	.	.	8a/)	8a\
.	.	.	.	.	8a/J	8a\J
=144	=144	=144	=144	=144	=144	=144
vi	Dm	4DD/	.	.	(8a/L	8a\L
.	.	.	.	.	8a/	8a\
.	.	4r	.	.	8a/	8a\
.	.	.	.	.	8a/	8a\
.	.	4r	.	.	8a/)	8a\
.	.	.	.	.	8a/J	8a\J
=145	=145	=145	=145	=145	=145	=145
I	F	4FF/	.	.	(8a/L	8a\L
.	.	.	.	.	8a/	8a\
.	.	4r	.	.	8a/	8a\
.	.	.	.	.	8a/	8a\
.	.	4r	.	.	8a/)	8a\
.	.	.	.	.	8a/J	8a\J
=146	=146	=146	=146	=146	=146	=146
iiib	Am/C	4CC/	.	.	(8a/L	8a\L
.	.	.	.	.	8a/	8a\
.	.	4r	.	.	8a/	8a\
.	.	.	.	.	8a/	8a\
.	.	4r	.	.	8a/)	8a\
.	.	.	.	.	8a/J	8a\J
=147	=147	=147	=147	=147	=147	=147
I	F	4FF/ 4AA/ 4F/ 4A/	.	.	(8a/L	8a\L
.	.	.	.	.	8a/	8a\
.	.	4r	.	.	8a/	8a\
.	.	.	.	.	8a/	8a\
.	.	4r	.	.	8a/)	8a\
.	.	.	.	.	8a/J	8a\J
=148	=148	=148	=148	=148	=148	=148
I	F	2.r	.	.	(8a/L	8a\L
.	.	.	.	.	8a/	8a\
.	.	.	.	.	8a/	8a\
.	.	.	.	.	8a/	8a\
.	.	.	.	.	8a/)	8a\
.	.	.	.	.	8a/J	8a\J
*	*	*	*	*	*v	*v
=149	=149	=149	=149	=149	=149
i	Fm	2.r	.	p	(8a-/L
.	.	.	.	.	8f/
.	.	.	.	.	8a-/
.	.	.	.	.	8f/
.	.	.	.	.	8a-/
.	.	.	.	.	8f/J
=150	=150	=150	=150	=150	=150
i	Fm	2r	.	.	8a-/L
.	.	.	.	.	8f/
.	.	.	.	.	8a-/
.	.	.	.	.	8f/J)
==	==	==	==	==	==
*-	*-	*-	*-	*-	*-
!!!ENC: Craig Stuart Sapp
!!!END: 2008/02/11/
